X: 3
T: The Reel Of Rio
R: reel
M: 4/4
L: 1/8
K: Gmaj
|:BGGG AEGE|DEGA BAAA|BGGG AEGE|DEGA BGGG:|[|Bded gded|Bdgd BAAA|Bded gded|BdAc BGGG|Bded gded|Bdgd BAAA|Bded g3d|BdAc BGGG|]


Tune 575	Setting 575

